icon_installer/data/icons/scalable/actions/show-brush-monitor-symbolic.svg

<?xml version="1.0" encoding="UTF-8"?>
<svg height="16px" viewBox="0 0 16 16" width="16px" xmlns="http://www.w3.org/2000/svg">
    <path d="m 13.398438 0 l -3.46875 3.457031 c 0.683593 0.355469 1.234374 0.910157 1.589843 1.589844 l 0.171875 -0.171875 l 0.007813 0.007812 l 4.300781 -4.300781 v -0.582031 z m -10.398438 1 c -1.644531 0 -3 1.355469 -3 3 v 6 c 0 1.644531 1.355469 3 3 3 h 10 c 1.644531 0 3 -1.355469 3 -3 v -6 c 0 -0.570312 -0.167969 -1.101562 -0.449219 -1.558594 l -1.550781 1.554688 v 6.003906 c 0 0.570312 -0.429688 1 -1 1 h -10 c -0.570312 0 -1 -0.429688 -1 -1 v -6 c 0 -0.570312 0.429688 -1 1 -1 h 5.96875 l 2.007812 -2 z m 5 3 c -1.65625 0 -3 1.339844 -3 3 v 3 h 3 c 1.660156 0.007812 3 -1.34375 3 -3 c 0 -1.660156 -1.339844 -3 -3 -3 z m -3 10 c -1.105469 0 -2 0.894531 -2 2 h 10 c 0 -1.105469 -0.894531 -2 -2 -2 z m 0 0" fill="#222222"/>
</svg>

<svg xmlns="http://www.w3.org/2000/svg" width="16" height="16"><path fill="#222" d="M13.398 0 9.93 3.457a3.74 3.74 0 0 1 1.59 1.59l.171-.172.008.008L16 .582V0zM3 1C1.355 1 0 2.355 0 4v6c0 1.645 1.355 3 3 3h10c1.645 0 3-1.355 3-3V4a2.96 2.96 0 0 0-.45-1.559L14 3.996V10c0 .57-.43 1-1 1H3c-.57 0-1-.43-1-1V4c0-.57.43-1 1-1h5.969l2.008-2zm5 3C6.344 4 5 5.34 5 7v3h3c1.66.008 3-1.344 3-3 0-1.66-1.34-3-3-3zM5 14a2 2 0 0 0-2 2h10a2 2 0 0 0-2-2zm0 0"/></svg>
